X: 38208
T: Springboard
R: jig
M: 6/8
K: Bminor
|:D2F B3|D2F B3|B2B c2c|dcB c3|
D2F B3|D2F B3|dcB cBA|1 B3 B2F:|2 B3 B2c||
|:B2c d2e|fed e2d|B2c d2e|fga b3|
B2c d2e|fed e2d|fed cdc|1 B3 B2c:|2 B3 B2F||

